X:3764
T:Daniel's Hornpipe,(edited). JC.144
M:4/4
L:1/8
Q:180
S:John Clare,Poet,Helpstone (1793-1864)
R:Hornpipe
O:England
A:Northamptonshire
N:No TS in MS.
Z:Chris Partington.
K:Bb
c>ec>B B>AG>F|g>Ba>B b>BA>B|G>BF>B E>BD>B|c>ec>AB4|!
B>cd>e f>BA>B|g>Ba>B b>BA>B|G>BF>B E>BD>B|c>ec>AB4|!
|f>BA>B g>BA>B|g>ab>a g>fe>d|e>dc>B c>Be>d|e>dc>B B>AG>F|!
B>ed>e f>BA>B|g>Ba>B b>BA>B|G>BF>B E>BD>B|c>ec>A B4|]
